!!!OTL: 150. Freylekhs
!!!Genre:	Freylekhs
!!!Mode:	Major
!!!Listening/dance:	dance
!!!:	*g:dor
!!!One_Mode:	no
**kern
*I"P1
*clefG2
*k[f#]
*G:
*M2/4
*>A
!LO:TX:a:i:t=G-major
8a
=1
8bL
8gJ
32bLLL
32a
32b
32aJJ
8gJ
=2
8bL
8gJ
32bLLL
32a
32b
32aJJ
8gJ
=3
16bLL
16g
16b
16ddJJ
16ccLL
16b
16cc
16eeJJ
=4
24ddLL
24ee
24ddJ
8ggJ
24ddLL
24ee
24ddJ
8ggJ
=5
8bL
8gJ
32bLLL
32a
32b
32aJJ
8gJ
=6
16bLL
16g
16b
16gJJ
32bLLL
32a
32b
32aJJ
8gJ
=7
8bL
8ddJ
16ddLL
16cc
16b
16aJJ
=
4g
8r
=8:|!
*k[b-]
*>bM
*g:dor
!LO:TX:a:i:t=G-raised-fourth
*>B
(16cc#XLL
16eeJJ
=9
4.dd)
(16cc#XLL
16eeJJ
=10
4.dd)
(16cc#XLL
16eeJJ
=11
8ddL)
(16cc#XL
16eeJJ
8ddL)
(16cc#L
16eeJJ
=12
8ddL)
(16cc#XL
16eeJJ
4dd)
=13!|:
8cc#XL
8dd
8ee
(8qgg/
8ffJ)
=14
4.dd
8dd
=15
8cc#XL
8dd
8ee
(8qgg/
8ffJ)
=16
4dd
8r
24ddLL
24ee
24ddJJ
=17
8cc#XL
8dd
8ee
8ffJ
=18
24ggLL
24aa
24ggJ
8ffJ
24eeLL
24ff
24eeJ
8ddJ
=19
24eeLL
24ff
24eeJ
8ddJ
24cc#XLL
24dd
24cc#J
8b-J
=20
24cc#XLL
24dd
24cc#J
8b-J
24aLL
24b-
24aJ
8gJ
=21
(16b-LL
16a
16ccn
(16b-JJ)
16aLL)
16g
16a
16b-JJ
*>B1
=22
4g
8r
8d
=23
(8qcc#/
2dd)
=24
(8qff#X/
2gg)
=25
8ddL
8gg
8dd
8ggJ
=26
4dd
8r
24ddLL
24ee
24ddJJ
*>B2
=27:|!
4.g
*>eM
==
*-
